X:520
T:B520-  Why Are My Eyes Still Flowing?
Q:1/4=120
L:1/4
M:3/4
K:G
GBc|A3/2B/ G3/4F/4|(G/F/) (G/B/) (A/G/)|F2F|\
GG(G/D/)|E3/2F/G|AGB|G3:|\
Bc3/2d/|d3/2c/ B/A/|B(c/B/) (A/G/)|A3|\
ded|c(B/A/) (G/A/)|A3/2G/A|B3|\
EFG|cB(c/A/)|B(c/B/) (A/G/)|F3|\
GAB|G2(B/A/)|F3/2E/F|.G3|]

